X:1
T:Ye men on earth, in God rejoice
T:Uriah Davenport
T:Text: Thomas Sternhold, on Ps. 66
T:This edition by Edmund Gooch released into the public domain, June 2011.
T:Ye men on earth, in God rejoice
T:PSALM LXVI.
C:Uriah Davenport
Z:Text: Thomas Sternhold, on Ps. 66
%%score [ 1 2 3 4 ]
L:1/8
M:2/2
K:G
V:1 treble nm="Treble" snm="Tr."
V:2 treble nm="Alto" snm="A."
V:3 treble-8 transpose=-12 nm="Tenor" snm="T."
V:4 bass nm="Bass" snm="B."
V:1
"^[Soprano & Bass]" G4 A2 B2 | (A3 G A2) B2 | (c3 d c2) B2 | A4 B4 | G4 (A2 B2) | (c3 d c2) B2 | %6
w: He laid the|sea _ _ like|heaps _ _ on|high, There-|in a _|way _ _ they|
w: Ye men on|earth, _ _ in|God _ _ re-|joice; With|praise set _|forth _ _ his|
w: All men that|dwell _ _ the|earth _ _ through-|out Shall|praise the _|name _ _ of|
 A8 | z8 | z8 | z8 | z8 | z8 | z8 | z8 | G4 G2 G2 | G4 B4 | G4 A4 | F4 z4 | A4 A2 G2 | B4 A4 | A8 | %21
w: had||||||||His might doth|rule the|world al-|way,|His eyes all|things be-|hold;|
w: name:||||||||How won- der-|ful, O|Lord, say|ye,|In all thy|works thou|art:|
w: God;||||||||All folk come|forth, be-|hold and|see|What things the|Lord hath|wrought;|
 z4 B4 | B2 B2 B4 | G4 A4 | G4 F4 | z4 G4 | c4 B4 | (A2 G2) F4 | G8 |] %29
w: And|such as will|him dis-|o- bey,|By|him shall|be _ con-|troll’d.|
w: Thy|foes for fear|shall seek|to thee,|Full|sore a-|gainst _ their|heart.|
w: Mark|well the wond-|rous works|that he|For|men to|pass _ hath|brought.|
V:2
 z8 | z8 | z8 | z8 | z8 | z8 | z8 |"^[Alto & Tenor]" F4 F2 D2 | G4 F4 | (E3 D EF) G2 | %10
w: |||||||On foot to|pass, both|fair _ _ _ and|
w: |||||||Ex- tol his|might with|heart _ _ _ and|
w: |||||||The laud where-|of the|world _ _ _ a-|
 D4 (B,C D2) | E4 D4 | (C2 B,2) A,4 | B,8 | D4 D2 D2 | D4 B,4 | D4 D4 | D4 z4 | F4 F2 D2 | G4 E4 | %20
w: dry, Where- * *|of their|hearts _ were|glad.|His might doth|rule the|world al-|way,|His eyes all|things be-|
w: voice, Give _ _|glo- ry|to _ the|same.|How won- der-|ful, O|Lord, say|ye,|In all thy|works thou|
w: bout Is _ _|shew’d and|set _ a-|broad.|All folk come|forth, be-|hold and|see|What things the|Lord hath|
 F8 | z4 G4 | G2 G2 G4 | D4 E4 | D4 D4 | z4 D4 | (G2 A2) (G2 F2) | E4 D4 | D8 |] %29
w: hold;|And|such as will|him dis-|o- bey,|By|him _ shall _|be con-|troll’d.|
w: art:|Thy|foes for fear|shall seek|to thee,|Full|sore _ a- *|gainst their|heart.|
w: wrought;|Mark|well the wond-|rous works|that he|For|men _ to _|pass hath|brought.|
V:3
 z8 | z8 | z8 | z8 | z8 | z8 | z8 | d4 d2 B2 | e4 d4 | (c3 B A2) G2 | F4 (GA B2) | c4 B4 | %12
w: |||||||On foot to|pass, both|fair _ _ and|dry, Where- * *|of their|
w: |||||||Ex- tol his|might with|heart _ _ and|voice, Give _ _|glo- ry|
w: |||||||The laud where-|of the|world _ _ a-|bout Is _ _|shew’d and|
 (d2 G2) F4 | G8 | B4 B2 B2 | B4 G4 | B4 A4 | A4 z4 | d4 d2 B2 | (e2 d2) ^c4 | d8 | z4 d4 | %22
w: hearts _ were|glad.|His might doth|rule the|world al-|way,|His eyes all|things _ be-|hold;|And|
w: to _ the|same.|How won- der-|ful, O|Lord, say|ye,|In all thy|works _ thou|art:|Thy|
w: set _ a-|broad.|All folk come|forth, be-|hold and|see|What things the|Lord _ hath|wrought;|Mark|
 d2 d2 d4 | B4 c4 | B4 A4 | z4 B4 | e4 d4 | (c2 B2) A4 | G8 |] %29
w: such as will|him dis-|o- bey,|By|him shall|be _ con-|troll’d.|
w: foes for fear|shall seek|to thee,|Full|sore a-|gainst _ their|heart.|
w: well the wond-|rous works|that he|For|men to|pass _ hath|brought.|
V:4
 G,4 D,2 B,,2 | (C,3 B,, A,,2) G,,2 | (C3 B, C2) D2 | D,4 B,,4 | E,4 D,4 | (C,3 B,, A,,2) G,,2 | %6
w: He laid the|sea _ _ like|heaps _ _ on|high, There-|in a|way _ _ they|
w: Ye men on|earth, _ _ in|God _ _ re-|joice; With|praise set|forth _ _ his|
w: All men that|dwell _ _ the|earth _ _ through-|out Shall|praise the|name _ _ of|
 D,8 | z8 | z8 | z8 | z8 | z8 | z8 | z8 | G,4 G,2 G,2 | G,4 G,,4 | G,4 D,4 | D,4 z4 | D,4 D,2 G,2 | %19
w: had||||||||His might doth|rule the|world al-|way,|His eyes all|
w: name:||||||||How won- der-|ful, O|Lord, say|ye,|In all thy|
w: God;||||||||All folk come|forth, be-|hold and|see|What things the|
 E,4 A,4 | D,8 | %21
w: things be-|hold;|
w: works thou|art:|
w: Lord hath|wrought;|
"^Emendations: Original clefs treble, alto, tenor and bass; the original time signature was retorted time. Only the firststanza of the text is given in the source: three subsequent stanzas have here been underlaid editorially." z4 G,4 | %22
w: And|
w: Thy|
w: Mark|
 G,2 G,2 G,4 | G,4 C,4 | G,,4 D,4 | z4 G,4 | (C,2 A,,2) B,,4 | C,4 D,4 | G,,8 |] %29
w: such as will|him dis-|o- bey,|By|him _ shall|be con-|troll’d.|
w: foes for fear|shall seek|to thee,|Full|sore _ a-|gainst their|heart.|
w: well the wond-|rous works|that he|For|men _ to|pass hath|brought.|

